X: 6256
T: Carolan's Cup
R: jig
M: 6/8
K: Gmajor
|:G/A/|~B2A GBd|AGE DBA|GFE DB,D|Eed ecA|
~B2A GBd|~A2 G FGA|GFE DB,D|E3 E2:|
|:F|{GA}G2F {GA}G2B|BdB BdB|~A2G ABc|e!slide!fe ede|
dBA GBd|AGE DBA|GFE DB,D|E3 E2:|

